X:23
T:Holiday Polka
C:Andy De Jarlis
M:2/4
L:1/8
Z:abc by Bruce Osborne - bosborne@kos.net
K:G
d/c/|Bd gb|B/c/B/A/ B (3B/c/B/|AB ce|E3 (3E/F/E/|!
D/E/F/G/ A/B/c/d/|f/g/f/e/ ff/e/|d/d/^c/d/ ed|B/c/B/^A/ Bd/c/|!
Bd gb|B/c/B/A/ B (3B/c/B/|AB ce|E3 (3E/F/E/|!
D/E/F/G/ A/B/c/d/|f/g/f/e/ ff/e/|dd/d/ ef|g3:|!
K:D
A/G/|(3F/G/F/ A/d/ f/e/d/f/|aa a3/2a/|(3a/b/a/ ^g/a/ b/a/^g/a/|^c2 ^c/d/^c/B/|!
A/B/^c/d/ e/f/g/e/|aa/a/ af/a/|aa/f/ g/f/e/^c/|d^c/d/ B/d/A/G/|!
(3F/G/F/ A/d/ f/e/d/f/|aa a3/2a/|(3a/b/a/ ^g/a/ b/a/^g/a/|^c2 ^c/d/^c/B/|!
A/B/^c/d/ e/f/g/e/|bb bf/g/|aa/f/ g/f/e/^c/|d3:|!
K:C
(3g/a/g/|fg eg|G2 G/A/G/F/|EG ce|g2 B (3a/b/a/|!
ga fa|B2 B/c/B/A/|G3/2E/ FG|E/F/E/D/ E (3g/a/g/|!
fg eg|G2 G/A/G/F/|EG ce|g2 f3/2e/|!
fa a/b/a/g/|e/gg/ g/f/e/d/|BG AB|c3:|!
